X:16533
T:The Bunch of Green Rushes
R:Reel
S:
H:
N:
D:
Z:Adrian Scahill
M:4/4
L:1/8
K:C
cAGE F2FA|cAGc Adde|cAGE F2ag|1 fdec Adde:|2 fdec Addc||\
:Adde cAGE|FGAB cAGc|AddA cAGA|1 cdeg gedc:|2 cdeg gece||\
K:G\
d2fd adfd|c2ec gcec|d2fd adfd|cAGc Addc|\
d2fd adfd|cdef g2fg|afge fded|cAGc Adde||


